app/dist/common/images/uoa.svg

<svg fill="none" height="18" viewBox="0 0 18 18" width="18" xmlns="http://www.w3.org/2000/svg"><path d="m0 0h18v18h-18z" fill="#f0f3fa"/><path clip-rule="evenodd" d="m9 14c2.431 0 4.4587-1.7178 4.9243-4h-2.1011c-.4095 1.1674-1.5188 2.0043-2.82299 2.0043-1.3042 0-2.41348-.8369-2.82298-2.0043h-2.10153c.46557 2.2822 2.49334 4 4.9243 4zm2.9498-5.5h2.0502c-.2521-2.52666-2.3945-4.5-5-4.5-2.60554 0-4.74789 1.97334-5 4.5h2.05059c.02904-.17209.07271-.3392.12966-.5h5.63995c.0569.1608.1006.32791.1296.5zm-.7235-1.5c-.5477-.61127-1.34211-.99573-2.22609-.99573-.88399 0-1.67843.38446-2.2261.99573z" fill="#c39e06" fill-rule="evenodd"/></svg>

<!-- by TradingView --><svg width="18" height="18" viewBox="0 0 18 18" fill="none" xmlns="http://www.w3.org/2000/svg">
<rect width="18" height="18" fill="#F0F3FA"/>
<path fill-rule="evenodd" clip-rule="evenodd" d="M9 14C11.431 14 13.4587 12.2822 13.9243 10H11.8232C11.4137 11.1674 10.3044 12.0043 9.00021 12.0043C7.69601 12.0043 6.58673 11.1674 6.17723 10H4.0757C4.54127 12.2822 6.56904 14 9 14ZM11.9498 8.5H14C13.7479 5.97334 11.6055 4 9 4C6.39446 4 4.25211 5.97334 4 8.5H6.05059C6.07963 8.32791 6.1233 8.1608 6.18025 8H11.8202C11.8771 8.1608 11.9208 8.32791 11.9498 8.5ZM11.2263 7C10.6786 6.38873 9.88419 6.00427 9.00021 6.00427C8.11622 6.00427 7.32178 6.38873 6.77411 7H11.2263Z" fill="#C39E06"/>
</svg>
